public/images/ai34.svg

<svg width="100" height="100" viewBox="0 0 100 100" fill="none" xmlns="http://www.w3.org/2000/svg">
<path d="M13.2523 47.2907C10.9981 47.0171 10.8345 44.0083 7.96235 44.2636C6.5626 44.2636 5.27193 44.8471 5.27193 46.1418C5.27193 48.0748 8.2532 48.2571 10.0529 48.7495C13.125 49.6795 16.0881 50.3177 16.0881 53.6548C16.0881 57.9036 12.7796 59.3624 8.39863 59.3624C4.7084 59.3624 1 58.0677 1 54.6942C1 53.7642 1.89074 53.0165 2.76331 53.0165C3.85402 53.0165 4.25394 53.4907 4.63569 54.2565C5.49008 55.7518 6.43536 56.5542 8.79855 56.5542C10.2892 56.5542 11.8344 55.9889 11.8344 54.676C11.8344 52.816 9.9438 52.4148 7.9987 51.9771C4.5448 51.0107 1.58171 50.5183 1.23632 46.6707C0.872751 40.1242 14.4702 39.8689 15.2519 45.613C15.2337 46.6524 14.2703 47.2907 13.2523 47.2907ZM29.4311 41.5465C34.212 41.5465 36.9206 45.5583 36.9206 50.5001C36.9206 55.4601 34.2847 59.4536 29.4311 59.4536C26.7407 59.4536 25.0501 58.3048 23.8321 56.536V63.0824C23.8321 65.0518 23.1959 66.0001 21.7598 66.0001C20.0147 66.0001 19.6874 64.8877 19.6874 63.0824V44.0265C19.6874 42.4765 20.3419 41.5283 21.7598 41.5283C23.0868 41.5283 23.8321 42.586 23.8321 44.0265V44.5554C25.1955 42.8595 26.7407 41.5465 29.4311 41.5465ZM28.304 56.0436C31.1035 56.0436 32.3578 53.4542 32.3578 50.4271C32.3578 47.473 31.0853 44.8107 28.304 44.8107C25.3955 44.8107 24.0503 47.2177 24.0503 50.4271C24.0503 53.5454 25.4137 56.0436 28.304 56.0436ZM40.1746 46.2148C40.1746 42.7683 44.1193 41.5465 47.9549 41.5465C53.3357 41.5465 55.5535 43.1148 55.5535 48.3301V53.3448C55.5535 54.5301 56.2807 56.9007 56.2807 57.6118C56.2807 58.706 55.2808 59.3807 54.2083 59.3807C53.0267 59.3807 52.136 57.9765 51.5179 56.9736C49.7728 58.3777 47.9186 59.3807 45.0827 59.3807C41.956 59.3807 39.4838 57.5207 39.4838 54.4754C39.4838 51.7765 41.4107 50.2083 43.7375 49.6795C43.7375 49.6977 51.227 47.9107 51.227 47.8924C51.227 45.5948 50.409 44.5736 47.9913 44.5736C45.8644 44.5736 44.7737 45.1571 43.9375 46.4518C43.2649 47.4183 43.3558 48.0018 42.0651 48.0018C41.0835 47.9654 40.1746 47.2724 40.1746 46.2148ZM46.5734 56.5542C49.8455 56.5542 51.227 54.8218 51.227 51.3571V50.6277C50.3363 50.9195 46.7733 51.813 45.8099 51.9589C44.7737 52.1595 43.7375 52.9254 43.7375 54.1471C43.7921 55.4965 45.1554 56.5542 46.5734 56.5542ZM70.6598 35.0183C75.2953 35.0183 80.2944 37.7901 80.2944 42.203C80.2944 43.3336 79.44 44.2818 78.3311 44.2818C76.8223 44.2818 76.6042 43.4613 75.9316 42.3124C74.8227 40.2518 73.4956 38.8842 70.6416 38.8842C66.2061 38.8477 64.2246 42.6589 64.2246 47.4001C64.2246 52.1777 65.8789 55.6242 70.4598 55.6242C73.5138 55.6242 75.1862 53.8554 76.0588 51.5577C76.4042 50.5001 77.0404 49.4789 78.3493 49.4789C79.3855 49.4789 80.4216 50.5365 80.4216 51.6671C80.4216 56.3354 75.6589 59.5812 70.7689 59.5812C65.4062 59.5812 62.3704 57.3018 60.7162 53.5271C59.8982 51.7218 59.3892 49.8436 59.3892 47.2724C59.3346 40.033 63.552 35.0183 70.6598 35.0183ZM97.1458 41.5465C98.3274 41.5465 99.0182 42.3124 99.0182 43.516C99.0182 44.0083 98.6364 44.9748 98.491 45.4854L92.8012 60.493C91.5287 63.7571 90.5834 66.0001 86.2751 66.0001C84.2209 66.0001 82.4394 65.8177 82.4394 64.0307C82.4394 62.9912 83.2211 62.4807 84.3118 62.4807C84.5118 62.4807 84.839 62.5718 85.039 62.5718C85.348 62.5718 85.5661 62.663 85.7661 62.663C87.9293 62.663 88.2384 60.4383 89.0019 58.9065L83.512 45.2665C83.2029 44.5371 82.9848 44.0265 82.9848 43.5889C82.9848 42.3854 83.9119 41.5101 85.1662 41.5101C86.5659 41.5101 87.1113 42.6042 87.4567 43.8077L91.0924 54.6395L94.7281 44.6283C95.2371 43.1148 95.2916 41.5465 97.1458 41.5465Z" fill="#09A3D5"/>
</svg>

<svg xmlns="http://www.w3.org/2000/svg" width="100" height="100" fill="none"><path fill="#09A3D5" d="M13.252 47.29c-2.254-.273-2.418-3.282-5.29-3.026-1.4 0-2.69.583-2.69 1.878 0 1.933 2.981 2.115 4.78 2.607 3.073.93 6.036 1.569 6.036 4.906 0 4.249-3.308 5.707-7.69 5.707-3.69 0-7.398-1.294-7.398-4.668 0-.93.89-1.678 1.763-1.678 1.091 0 1.49.475 1.873 1.24.854 1.496 1.8 2.298 4.163 2.298 1.49 0 3.035-.565 3.035-1.878 0-1.86-1.89-2.261-3.835-2.699-3.454-.966-6.417-1.459-6.763-5.306-.363-6.547 13.234-6.802 14.016-1.058-.018 1.04-.982 1.678-2 1.678m16.18-5.743c4.78 0 7.489 4.011 7.489 8.953 0 4.96-2.636 8.954-7.49 8.954-2.69 0-4.38-1.15-5.599-2.918v6.546c0 1.97-.636 2.918-2.072 2.918-1.745 0-2.073-1.112-2.073-2.918V44.026c0-1.55.655-2.498 2.073-2.498 1.327 0 2.072 1.058 2.072 2.499v.528c1.363-1.696 2.909-3.008 5.6-3.008m-1.128 14.497c2.8 0 4.054-2.59 4.054-5.617 0-2.954-1.273-5.616-4.054-5.616-2.908 0-4.254 2.407-4.254 5.616 0 3.118 1.364 5.617 4.254 5.617m11.87-9.83c0-3.446 3.945-4.667 7.78-4.667 5.382 0 7.6 1.568 7.6 6.783v5.015c0 1.185.727 3.556.727 4.267 0 1.094-1 1.769-2.073 1.769-1.181 0-2.072-1.404-2.69-2.407-1.745 1.404-3.6 2.407-6.435 2.407-3.127 0-5.6-1.86-5.6-4.906 0-2.699 1.928-4.267 4.255-4.796 0 .019 7.489-1.768 7.489-1.787 0-2.297-.818-3.318-3.236-3.318-2.127 0-3.217.583-4.053 1.878-.673.966-.582 1.55-1.873 1.55-.981-.037-1.89-.73-1.89-1.787m6.4 10.34c3.272 0 4.653-1.732 4.653-5.197v-.73c-.89.292-4.454 1.186-5.417 1.332-1.036.2-2.073.966-2.073 2.188.055 1.35 1.418 2.407 2.836 2.407M70.66 35.018c4.635 0 9.634 2.772 9.634 7.185 0 1.13-.854 2.079-1.963 2.079-1.509 0-1.727-.82-2.4-1.97-1.108-2.06-2.435-3.428-5.29-3.428-4.435-.036-6.416 3.775-6.416 8.516 0 4.778 1.654 8.224 6.235 8.224 3.054 0 4.726-1.769 5.599-4.066.345-1.058.981-2.08 2.29-2.08 1.036 0 2.073 1.058 2.073 2.19 0 4.667-4.763 7.913-9.653 7.913-5.363 0-8.399-2.28-10.053-6.054-.818-1.805-1.327-3.683-1.327-6.255-.054-7.239 4.163-12.254 11.27-12.254m26.486 6.529c1.181 0 1.872.765 1.872 1.969 0 .492-.382 1.459-.527 1.97l-5.69 15.007C91.53 63.757 90.583 66 86.275 66c-2.054 0-3.836-.182-3.836-1.97 0-1.039.782-1.55 1.873-1.55.2 0 .527.092.727.092.309 0 .527.091.727.091 2.163 0 2.472-2.225 3.236-3.756l-5.49-13.64c-.31-.73-.527-1.24-.527-1.678 0-1.204.927-2.079 2.181-2.079 1.4 0 1.945 1.094 2.29 2.298l3.636 10.831 3.636-10.01c.51-1.514.564-3.082 2.418-3.082"/></svg>
